!!!COM:	Busnoys, Antoine
!!!CDT:	~1430///-1492/11/06
!!!OTL:	Ja que li ne si attende
!!!AGN:	Song; Chanson
!!!SCT:	Bus3026
!!!SCA:	Bus3026
!!!voices:	3
**kern	**kern	**kern
*staff3	*staff2	*staff1
*Ivox	*Ivox	*Ivox
*I"Contratenor	*I"Tenor	*I"Cantus
*I'Ct	*I'T	*I'Cn
*>[A,B,B1,B,B2]	*>[A,B,B1,B,B2]	*>[A,B,B1,B,B2]
*>A	*>A	*>A
*clefF4	*clefGv2	*clefG2
*k[]	*k[]	*k[]
*M2/1	*M2/1	*M2/1
*met(C)	*met(C)	*met(C)
=1-	=1-	=1-
!!LO:TX:Z=12:t=Virelai
[0C	1.c	0c
.	2B	.
=2	=2	=2
0C]	2.A	2.e
.	4G	4f
.	1G	[1g
=3	=3	=3
0C	1r	2g]
.	.	1a
.	[1c	.
.	.	2g
=4	=4	=4
0C	2c]	2e
.	2d	2f
.	2.e	2.g
.	4d	4f
=5	=5	=5
1G	1B	2d
.	.	2r
1F	2c	1a
.	[2d	.
=6	=6	=6
1G	2d]	1b
.	1B	.
1E	.	1g
.	[2e	.
=7	=7	=7
1A	4e]	1cc
.	4d	.
.	2c	.
1G	2B	2dd
.	[2d	[2b
=8	=8	=8
1F	4d]	4b]
.	4c	4a
.	2A	2f#i
1E	1B	1g#i
=9	=9	=9
1A	1r	1a
2G	1e	1r
2E	.	.
=10	=10	=10
2.F	1d	1a
4G	.	.
2E	1e	1g
2G	.	.
=11	=11	=11
2F	1d	1dd
2G	.	.
1E	2.e	2cc
.	.	[2b
.	4d	.
=12	=12	=12
1F	2c	2b]
.	2A	1a
1E	1B	.
.	.	2g#i
=13	=13	=13
1r	2A	1.a
.	1c	.
1F	.	.
.	2d	4g
.	.	4f
=14	=14	=14
2E	1.e	2.g
1G	.	.
.	.	4a
.	.	2b
2E	4d	2cc
.	4c	.
=15	=15	=15
2F	2.d	2a
2D	.	4g
.	4c	4f
1C	2e	2e
.	2c	[2a
=16	=16	=16
1r	2d	4a]
.	.	4g
.	2B	1g
1c	1A	.
.	.	2f#i
=17	=17	=17
2B	2r	1g
1d	1G	.
.	.	1r
2B	2d	.
=18	=18	=18
2c	2e	1cc
2A	2f	.
1G	1g	2b
.	.	2dd
=19	=19	=19
1A	2e	2cc
.	2f	4b
.	.	4a
1G	2g	2b
.	[2e	2g
=20	=20	=20
1A	2e]	2cc
.	2c	1cc
1G	1d	.
.	.	2b
=21	=21	=21
1r	1c	1cc
1C	1e	2r
.	.	[2g
=22	=22	=22
1BB	1d	2g]
.	.	2f
1C	1c	2e
.	.	4d
.	.	4c
=23	=23	=23
1D	1r	2.B
.	.	4A
1C	2r	1c
.	[2g	.
=24	=24	=24
1BB	2g]	1d
.	2f	.
1C	2e	1c
.	4d	.
.	4c	.
=25	=25	=25
1D	2.B	1r
.	4A	.
1C	1c	1g
=26	=26	=26
1r	2f	2a
.	2.e	2.g
1E	.	.
.	4c	4f
.	[2c	2g
=27	=27	=27
1D	2c]	2a
.	2B	2g
1C	1c	1e
=28	=28	=28
1BB	1r	1d
1E	2.G	2r
.	.	2g
.	4A	.
=29	=29	=29
2D	2B	2f
2E	1c	2e
2C	.	2g
2D	2A	2f
=30	=30	=30
1BB	1B	1d
1r	1c	1c
=31	=31	=31
1BB	1d	1r
1C	2c	1e
.	[2A	.
=32	=32	=32
1D	2A]	1f
.	1B	.
1E	.	1g
.	[2c	.
=33	=33	=33
1F	2c]	2a
.	2A	1a
1E	1B	.
.	.	2g#i
=34	=34	=34
2r	1A	2.a
2A	.	.
.	.	4b
2.A	2r	2.cc
.	[2A	.
4G	.	4b
=35	=35	=35
2F	2A]	2a
2.E	2B	2.g
.	1c	.
4D	.	4f
2C	.	2e
=36	=36	=36
2.BB	2.d	2d
.	.	2.dd
4C	4e	.
2D	2f	.
.	.	4cc
[2E	[2g	4b
.	.	4a
=37	=37	=37
2E]	2g]	2g
2F	4f	1cc
.	4e	.
1G	1d	.
.	.	2b
=38	=38	=38
0Cl	0cl	0ccl
!!LO:LB:i:g=z
=39||!|:	=39||!|:	=39||!|:
*>B	*>B	*>B
*clefF4	*clefGv2	*clefG2
*k[]	*k[]	*k[]
*M2/1	*M2/1	*M2/1
*met(C)	*met(C)	*met(C)
!!section: Ainsi a il
!!!OMD: Ainsi a il
0G	0g	0b
=40	=40	=40
0A	0e	0cc
=41	=41	=41
0A	0f	0a
=42	=42	=42
0G	0g	0b
=43	=43	=43
1r	1e	1g
[1D	[1f	[1a
=44	=44	=44
2D]	2f]	2a]
2E	2e	2g
1F	2d	2f
.	2c	2e
=45	=45	=45
[0G	[0B	0d
=46	=46	=46
0G_	0B]	1r
.	.	1d
=47	=47	=47
0G_	1r	1d
.	1B	1d
=48	=48	=48
0G]	1B	0g
.	1B	.
=49	=49	=49
1F	1c	1a
1G	1B-i	[1b-
=50	=50	=50
0E	0G	2b-]
.	.	2g
.	.	[1g
=51	=51	=51
0D	0A	1g]
.	.	1f#i
!!LO:REP:start=1
=52	=52	=52
*>B1	*>B1	*>B1
0E	0G	0g
!!LO:REP:end=1
!!LO:REP:start=2
=53:|!	=53:|!	=53:|!
*>B2	*>B2	*>B2
1.E	1G	1g
.	1c	1r
2F	.	.
!!LO:REP:open=2
=54	=54	=54
1G	1B	1g
1C	1e	1cc
=55	=55	=55
0G	1d	1b
.	[1g	[1ee
=56	=56	=56
0c	2g]	2ee]
.	2f	2dd
.	1e	[1cc
=57	=57	=57
0G	0d	2cc]
.	.	4b
.	.	4cc
.	.	2.b
.	.	4a
=58	=58	=58
1r	[0cl	[0ccl
1C	.	.
=59	=59	=59
0Cl	0c]	0cc]
==	==	==
*-	*-	*-
!!!RDF**kern: l=long note in original notation
!!!RDF**kern: i=editorial accidental
!!!ENC:	Chris Gage 02-10-2015
!!!END:	2015/02/20/
!!!EED:	Jesse Rodin
!!!EEV:	2015/05/10/
!!!ONB:	Translated from MusicXML and edited on 2015/05/10/ by Craig Sapp
!!muse2ps: C^@{COM}^i2I150v95,95,150Q16
